assets/sonr-icons/data.svg

<svg xmlns="http://www.w3.org/2000/svg" width="24" height="24" fill="none" viewBox="0 0 24 24"><path fill="#000" fill-rule="evenodd" d="M3.14581 1.43995C3.03135 1.4399 2.89504 1.43985 2.77501 1.44961 2.63566 1.46093 2.43699 1.49014 2.22891 1.59519 1.95164 1.73535 1.73326 1.95877 1.59717 2.22504L1.59502 2.2293C1.48997 2.43739 1.46097 2.63562 1.44965 2.77496 1.4399 2.895 1.43995 3.0313 1.43999 3.14576V5.49414C1.43995 5.60861 1.4399 5.74491 1.44965 5.86495 1.46097 6.00429 1.49019 6.20296 1.59524 6.41104 1.7354 6.68831 1.95882 6.90669 2.22509 7.04278L2.22935 7.04493C2.43743 7.14998 2.63566 7.17898 2.77501 7.1903 2.89504 7.20005 3.03134 7.2 3.1458 7.19996H5.49419C5.60865 7.2 5.74496 7.20005 5.86499 7.1903 6.00433 7.17898 6.203 7.14976 6.41109 7.04471 6.68836 6.90455 6.90673 6.68113 7.04283 6.41487L7.04498 6.4106C7.15003 6.20252 7.17902 6.00429 7.19035 5.86495 7.2001 5.74491 7.20005 5.60861 7.2 5.49416V3.14576C7.20005 3.0313 7.2001 2.89499 7.19035 2.77496 7.17902 2.63562 7.14981 2.43695 7.04476 2.22887 6.9046 1.95159 6.68118 1.73322 6.41491 1.59712L6.41065 1.59497C6.20257 1.48992 6.00433 1.46093 5.86499 1.44961 5.74495 1.43985 5.60865 1.4399 5.49419 1.43995H3.14581ZM3.36 5.27995V3.35995H5.28V5.27995H3.36ZM10.8258 5.27995C10.7113 5.2799 10.575 5.27985 10.455 5.28961 10.3157 5.30093 10.117 5.33014 9.90891 5.43519 9.63164 5.57535 9.41326 5.79877 9.27717 6.06504L9.27502 6.0693C9.16997 6.27739 9.14097 6.47562 9.12965 6.61496 9.1199 6.73499 9.11995 6.87129 9.11999 6.98575V9.33414C9.11995 9.4486 9.1199 9.58491 9.12965 9.70495 9.14097 9.84429 9.17019 10.043 9.27524 10.251 9.4154 10.5283 9.63882 10.7467 9.90509 10.8828L9.90935 10.8849C10.1174 10.99 10.3157 11.019 10.455 11.0303 10.575 11.0401 10.7113 11.04 10.8258 11.04H13.1742C13.2887 11.04 13.425 11.0401 13.545 11.0303 13.6843 11.019 13.883 10.9898 14.0911 10.8847 14.3684 10.7446 14.5867 10.5211 14.7228 10.2549L14.725 10.2506C14.83 10.0425 14.859 9.84429 14.8703 9.70495 14.8801 9.5849 14.88 9.4486 14.88 9.33413V6.98577C14.88 6.87131 14.8801 6.735 14.8703 6.61496 14.859 6.47562 14.8298 6.27695 14.7248 6.06887 14.5846 5.79159 14.3612 5.57322 14.0949 5.43712L14.0906 5.43497C13.8826 5.32992 13.6843 5.30093 13.545 5.28961 13.425 5.27985 13.2887 5.2799 13.1742 5.27995H10.8258ZM11.04 9.11995V7.19995H12.96V9.11995H11.04ZM21.225 9.12961C21.105 9.11985 20.9686 9.1199 20.8542 9.11995H18.5058C18.3913 9.1199 18.255 9.11985 18.135 9.12961 17.9957 9.14093 17.7974 9.16991 17.5893 9.27496L17.5851 9.27714C17.3188 9.41323 17.0952 9.63204 16.955 9.9093 16.85 10.1174 16.821 10.3156 16.8097 10.455 16.7999 10.575 16.7999 10.7113 16.8 10.8258L16.8 12.96 14.6658 12.9599C14.5514 12.9599 14.415 12.9599 14.295 12.9696 14.1557 12.9809 13.9574 13.0099 13.7493 13.115L13.7451 13.1171C13.4788 13.2532 13.2552 13.472 13.115 13.7493 13.01 13.9574 12.981 14.1556 12.9697 14.295 12.9599 14.415 12.9599 14.5513 12.96 14.6658L12.96 16.8 10.8258 16.7999C10.7114 16.7999 10.575 16.7999 10.455 16.8096 10.3157 16.8209 10.1174 16.8499 9.90934 16.955L9.90509 16.9571C9.63883 17.0932 9.41518 17.312 9.27502 17.5893 9.16997 17.7974 9.14097 17.9956 9.12965 18.135 9.1199 18.255 9.11995 18.3913 9.11999 18.5058V20.8541C9.11995 20.9686 9.1199 21.1049 9.12965 21.2249 9.14097 21.3643 9.16997 21.5625 9.27502 21.7706L9.27718 21.7749C9.41327 22.0411 9.63207 22.2648 9.90935 22.4049 10.1174 22.51 10.3157 22.539 10.455 22.5503 10.575 22.5601 10.7113 22.56 10.8258 22.56H20.8542C20.9687 22.56 21.105 22.5601 21.225 22.5503 21.3643 22.539 21.5626 22.51 21.7706 22.4049L21.7749 22.4028C22.0412 22.2667 22.2648 22.0479 22.405 21.7706 22.51 21.5625 22.539 21.3643 22.5503 21.2249 22.5601 21.1049 22.56 20.9686 22.56 20.8542V10.8257C22.56 10.7113 22.5601 10.575 22.5503 10.455 22.539 10.3156 22.51 10.1174 22.405 9.9093L22.4028 9.90505C22.2667 9.63877 22.0479 9.41513 21.7706 9.27497 21.5626 9.16992 21.3643 9.14093 21.225 9.12961ZM18.72 13.1742 18.72 11.04H20.64V20.64H11.04V18.72L13.1742 18.72C13.2887 18.72 13.425 18.7201 13.545 18.7103 13.6843 18.699 13.883 18.6698 14.0911 18.5647 14.3684 18.4246 14.5867 18.2011 14.7228 17.9349L14.725 17.9306C14.83 17.7225 14.859 17.5243 14.8703 17.3849 14.8801 17.2649 14.88 17.1286 14.88 17.0141L14.88 14.88 17.0142 14.88C17.1286 14.88 17.2649 14.8801 17.385 14.8703 17.5243 14.859 17.723 14.8298 17.9311 14.7247 18.2084 14.5846 18.4267 14.3611 18.5628 14.0949L18.565 14.0906C18.67 13.8825 18.699 13.6843 18.7103 13.5449 18.7201 13.4249 18.72 13.2886 18.72 13.1742ZM4.10582 11.0399C3.99136 11.0399 3.85505 11.0399 3.735 11.0496 3.59566 11.0609 3.39699 11.0901 3.18891 11.1952 2.91164 11.3354 2.69327 11.5588 2.55717 11.825L2.55502 11.8293C2.44997 12.0374 2.42097 12.2356 2.40965 12.375 2.3999 12.495 2.39995 12.6313 2.39999 12.7458V15.0941C2.39995 15.2086 2.3999 15.3449 2.40965 15.4649 2.42097 15.6043 2.45019 15.803 2.55524 16.011 2.6954 16.2883 2.91882 16.5067 3.18509 16.6428L3.18935 16.6449C3.39743 16.75 3.59566 16.779 3.735 16.7903 3.85505 16.8001 3.99136 16.8 4.10582 16.8H6.45418C6.56864 16.8 6.70495 16.8001 6.82499 16.7903 6.96433 16.779 7.163 16.7498 7.37109 16.6447 7.64836 16.5045 7.86674 16.2811 8.00283 16.0149L8.00498 16.0106C8.11003 15.8025 8.13902 15.6043 8.15035 15.4649 8.1601 15.3449 8.16005 15.2086 8.16 15.0942V12.7458C8.16005 12.6313 8.1601 12.495 8.15035 12.375 8.13902 12.2356 8.10981 12.0369 8.00476 11.8289 7.8646 11.5516 7.64117 11.3332 7.37491 11.1971L7.37065 11.195C7.16257 11.0899 6.96433 11.0609 6.82499 11.0496 6.70495 11.0399 6.56864 11.0399 6.45418 11.0399H4.10582ZM4.32 14.88V12.96H6.24V14.88H4.32Z" clip-rule="evenodd"/></svg>

<svg xmlns="http://www.w3.org/2000/svg" width="24" height="24" fill="none"><path fill="currentColor" fill-rule="evenodd" d="M3.146 1.44c-.115 0-.251 0-.371.01-.14.01-.338.04-.546.145-.277.14-.496.364-.632.63l-.002.004a1.5 1.5 0 0 0-.145.546c-.01.12-.01.256-.01.37v2.35c0 .114 0 .25.01.37.011.14.04.338.145.546.14.277.364.496.63.632l.004.002c.208.105.407.134.546.145.12.01.256.01.37.01h2.35c.114 0 .25 0 .37-.01.14-.011.338-.04.546-.145.277-.14.496-.364.632-.63l.002-.004c.105-.208.134-.407.145-.546.01-.12.01-.256.01-.37v-2.35c0-.114 0-.25-.01-.37a1.5 1.5 0 0 0-.145-.546 1.44 1.44 0 0 0-.63-.632l-.004-.002a1.5 1.5 0 0 0-.546-.145c-.12-.01-.256-.01-.37-.01zm.214 3.84V3.36h1.92v1.92zm7.466 0c-.115 0-.251 0-.371.01-.14.01-.338.04-.546.145-.277.14-.496.364-.632.63l-.002.004a1.5 1.5 0 0 0-.145.546c-.01.12-.01.256-.01.37v2.35c0 .114 0 .25.01.37.011.14.04.338.145.546.14.277.364.496.63.632l.004.002c.208.105.407.134.546.145.12.01.256.01.37.01h2.35c.114 0 .25 0 .37-.01.14-.011.338-.04.546-.145.277-.14.496-.364.632-.63l.002-.004c.105-.208.134-.407.145-.546.01-.12.01-.256.01-.37v-2.35c0-.114 0-.25-.01-.37a1.5 1.5 0 0 0-.145-.546 1.44 1.44 0 0 0-.63-.632l-.004-.002a1.5 1.5 0 0 0-.546-.145c-.12-.01-.256-.01-.37-.01zm.214 3.84V7.2h1.92v1.92zm10.185.01c-.12-.01-.256-.01-.37-.01h-2.35c-.114 0-.25 0-.37.01-.14.01-.338.04-.546.145l-.004.002a1.44 1.44 0 0 0-.63.632 1.5 1.5 0 0 0-.145.546c-.01.12-.01.256-.01.37v2.135h-2.134c-.115 0-.251 0-.371.01a1.5 1.5 0 0 0-.546.145l-.004.002a1.44 1.44 0 0 0-.63.632 1.5 1.5 0 0 0-.145.546c-.01.12-.01.256-.01.37V16.8h-2.134c-.115 0-.251 0-.371.01a1.5 1.5 0 0 0-.546.145l-.004.002a1.44 1.44 0 0 0-.63.632 1.5 1.5 0 0 0-.145.546c-.01.12-.01.256-.01.37v2.35c0 .114 0 .25.01.37.011.14.04.337.145.546l.002.004c.136.266.355.49.632.63.208.105.407.134.546.145.12.01.256.01.37.01h10.03c.114 0 .25 0 .37-.01.14-.011.338-.04.546-.145l.004-.002a1.44 1.44 0 0 0 .63-.632c.105-.209.134-.407.145-.546.01-.12.01-.256.01-.37v-10.03c0-.114 0-.25-.01-.37a1.5 1.5 0 0 0-.145-.546l-.002-.004a1.44 1.44 0 0 0-.632-.63 1.5 1.5 0 0 0-.546-.145m-2.505 4.044V11.04h1.92v9.6h-9.6v-1.92h2.134c.115 0 .251 0 .371-.01.14-.011.338-.04.546-.145.277-.14.496-.364.632-.63l.002-.004c.105-.209.134-.407.145-.546.01-.12.01-.256.01-.37V14.88h2.134c.115 0 .25 0 .371-.01.14-.011.338-.04.546-.145.277-.14.496-.364.632-.63l.002-.004c.105-.208.134-.407.145-.546.01-.12.01-.256.01-.37M4.106 11.04c-.115 0-.251 0-.371.01-.14.01-.338.04-.546.145a1.44 1.44 0 0 0-.632.63l-.002.004a1.5 1.5 0 0 0-.145.546c-.01.12-.01.256-.01.37v2.35c0 .114 0 .25.01.37.011.14.04.338.145.546.14.277.364.496.63.632l.004.002c.208.105.407.134.546.145.12.01.256.01.37.01h2.35c.114 0 .25 0 .37-.01.14-.011.338-.04.546-.145a1.44 1.44 0 0 0 .632-.63l.002-.004c.105-.208.134-.407.145-.546.01-.12.01-.256.01-.37v-2.35c0-.114 0-.25-.01-.37a1.5 1.5 0 0 0-.145-.546 1.44 1.44 0 0 0-.63-.632l-.004-.002a1.5 1.5 0 0 0-.546-.145c-.12-.01-.256-.01-.37-.01zm.214 3.84v-1.92h1.92v1.92z" clip-rule="evenodd"/></svg>
